static/img/kroki/56f15a4dde2c112e66afd6d5c65f516a.svg

<?xml version="1.0" encoding="us-ascii" standalone="no"?><svg xmlns="http://www.w3.org/2000/svg" xmlns:xlink="http://www.w3.org/1999/xlink" contentStyleType="text/css" height="252px" preserveAspectRatio="none" style="width:287px;height:252px;" version="1.1" viewBox="0 0 287 252" width="287px" zoomAndPan="magnify"><defs/><g><!--class aws_iam_instance_profile--><g id="elem_aws_iam_instance_profile"><rect codeLine="22" fill="#3D176E" height="39.7891" id="aws_iam_instance_profile" rx="2.5" ry="2.5" style="stroke:#000D19;stroke-width:0.5;" width="257" x="7" y="206.58"/><ellipse cx="22" cy="226.4745" fill="#ADD1B2" rx="11" ry="11" style="stroke:#181818;stroke-width:1.0;"/><path d="M24.9688,232.1152 Q24.3906,232.412 23.75,232.5527 Q23.1094,232.7089 22.4063,232.7089 Q19.9063,232.7089 18.5781,231.0683 Q17.2656,229.412 17.2656,226.287 Q17.2656,223.162 18.5781,221.5058 Q19.9063,219.8495 22.4063,219.8495 Q23.1094,219.8495 23.75,220.0058 Q24.4063,220.162 24.9688,220.4589 L24.9688,223.1777 Q24.3438,222.5995 23.75,222.3339 Q23.1563,222.0527 22.5313,222.0527 Q21.1875,222.0527 20.5,223.1308 Q19.8125,224.1933 19.8125,226.287 Q19.8125,228.3808 20.5,229.4589 Q21.1875,230.5214 22.5313,230.5214 Q23.1563,230.5214 23.75,230.2558 Q24.3438,229.9745 24.9688,229.3964 L24.9688,232.1152 Z " fill="#000000"/><text fill="#D9B8FF" font-family="Helvetica" font-size="17" lengthAdjust="spacing" textLength="215" x="41" y="232.3598">aws_iam_instance_profile</text></g><!--class aws_iam_role--><g id="elem_aws_iam_role"><rect codeLine="24" fill="#3D176E" height="39.7891" id="aws_iam_role" rx="2.5" ry="2.5" style="stroke:#000D19;stroke-width:0.5;" width="157" x="123" y="106.79"/><ellipse cx="138" cy="126.6845" fill="#ADD1B2" rx="11" ry="11" style="stroke:#181818;stroke-width:1.0;"/><path d="M140.9688,132.3252 Q140.3906,132.622 139.75,132.7627 Q139.1094,132.9189 138.4063,132.9189 Q135.9063,132.9189 134.5781,131.2783 Q133.2656,129.622 133.2656,126.497 Q133.2656,123.372 134.5781,121.7158 Q135.9063,120.0595 138.4063,120.0595 Q139.1094,120.0595 139.75,120.2158 Q140.4063,120.372 140.9688,120.6689 L140.9688,123.3877 Q140.3438,122.8095 139.75,122.5439 Q139.1563,122.2627 138.5313,122.2627 Q137.1875,122.2627 136.5,123.3408 Q135.8125,124.4033 135.8125,126.497 Q135.8125,128.5908 136.5,129.6689 Q137.1875,130.7314 138.5313,130.7314 Q139.1563,130.7314 139.75,130.4658 Q140.3438,130.1845 140.9688,129.6064 L140.9688,132.3252 Z " fill="#000000"/><text fill="#D9B8FF" font-family="Helvetica" font-size="17" lengthAdjust="spacing" textLength="115" x="157" y="132.5698">aws_iam_role</text></g><!--class aws_region--><g id="elem_aws_region"><rect codeLine="26" fill="#3D176E" height="39.7891" id="aws_region" rx="2.5" ry="2.5" style="stroke:#000D19;stroke-width:0.5;" width="137" x="67" y="7"/><ellipse cx="82" cy="26.8945" fill="#ADD1B2" rx="11" ry="11" style="stroke:#181818;stroke-width:1.0;"/><path d="M84.9688,32.5352 Q84.3906,32.832 83.75,32.9727 Q83.1094,33.1289 82.4063,33.1289 Q79.9063,33.1289 78.5781,31.4883 Q77.2656,29.832 77.2656,26.707 Q77.2656,23.582 78.5781,21.9258 Q79.9063,20.2695 82.4063,20.2695 Q83.1094,20.2695 83.75,20.4258 Q84.4063,20.582 84.9688,20.8789 L84.9688,23.5977 Q84.3438,23.0195 83.75,22.7539 Q83.1563,22.4727 82.5313,22.4727 Q81.1875,22.4727 80.5,23.5508 Q79.8125,24.6133 79.8125,26.707 Q79.8125,28.8008 80.5,29.8789 Q81.1875,30.9414 82.5313,30.9414 Q83.1563,30.9414 83.75,30.6758 Q84.3438,30.3945 84.9688,29.8164 L84.9688,32.5352 Z " fill="#000000"/><text fill="#D9B8FF" font-family="Helvetica" font-size="17" lengthAdjust="spacing" textLength="95" x="101" y="32.7798">aws_region</text></g><!--link aws_iam_role to aws_iam_instance_profile--><g id="link_aws_iam_role_aws_iam_instance_profile"><path codeLine="28" d="M188.46,147.01 C177.88,162.68 162.93,184.84 151.6,201.62 " fill="none" id="aws_iam_role-to-aws_iam_instance_profile" style="stroke:#1A83AF;stroke-width:2.0;"/><polygon fill="#1A83AF" points="148.51,205.2,156.8637,199.9832,151.3098,201.0574,150.2356,195.5035,148.51,205.2" style="stroke:#1A83AF;stroke-width:2.0;"/></g><!--link aws_region to aws_iam_instance_profile--><g id="link_aws_region_aws_iam_instance_profile"><path codeLine="29" d="M125.93,47.1 C118.71,62.74 109.39,85.61 105.5,106.79 C102.3,124.18 102.3,129.19 105.5,146.58 C108.97,165.45 116.73,185.65 123.5,200.89 " fill="none" id="aws_region-to-aws_iam_instance_profile" style="stroke:#1A83AF;stroke-width:2.0;"/><polygon fill="#1A83AF" points="125.93,205.27,125.8472,195.4215,123.861,200.7182,118.5643,198.7319,125.93,205.27" style="stroke:#1A83AF;stroke-width:2.0;"/></g><!--link aws_region to aws_iam_role--><g id="link_aws_region_aws_iam_role"><path codeLine="30" d="M148.54,47.22 C159.12,62.89 174.07,85.05 185.4,101.83 " fill="none" id="aws_region-to-aws_iam_role" style="stroke:#1A83AF;stroke-width:2.0;"/><polygon fill="#1A83AF" points="188.49,105.41,186.7644,95.7135,185.6902,101.2674,180.1363,100.1932,188.49,105.41" style="stroke:#1A83AF;stroke-width:2.0;"/></g><!--SRC=[hP11IyD048Nl_HKBEHSQWpQv2B5Gz5B4UXC9q-nikZIx6sQtXYh-TqshijqqxSNhUz_CUpDhoP6XQjoEALGh93ko6waR850i9pBjpDI6M2G4Y6GQcdEZtKLW0GhPFTPlw6G98V6ybkL6exNiohFkeDnKPBQQ7zOx0cs_BTJEesOrM9ixHtArTUYLuTag5I8amwLHmkFf3VOmGnpf1vbC9ZpEGkHYrDcx_uYbV4SM-qzR68Uzchs8FNMsPKTu9Nk7_lg37H-1SwahTkrfJuTEf96EzEKQk6axMa1j_HZhaD2uNOEptbMOfLnCJy8FGt3PVOv1Qmi9gf3QEj0b5WqP8Mja7wFF027JamahQVHUFAB6Br6Sfqa-VntV3aQCl0t_Cz1bVm40]--></g></svg>

<svg xmlns="http://www.w3.org/2000/svg" width="287" height="252" preserveAspectRatio="none" style="width:287px;height:252px"><rect width="257" height="39.789" x="7" y="206.58" fill="#3D176E" rx="2.5" ry="2.5" style="stroke:#000d19;stroke-width:.5"/><circle cx="22" cy="226.475" r="11" fill="#ADD1B2" style="stroke:#181818;stroke-width:1"/><path d="M24.969 232.115q-.578.297-1.219.438-.64.156-1.344.156-2.5 0-3.828-1.64-1.312-1.657-1.312-4.782t1.312-4.781q1.328-1.656 3.828-1.656.703 0 1.344.156.656.156 1.219.453v2.719q-.625-.578-1.219-.844-.594-.281-1.219-.281-1.343 0-2.031 1.078-.688 1.062-.688 3.156 0 2.094.688 3.172.688 1.062 2.031 1.062.625 0 1.219-.265.594-.281 1.219-.86v2.72Z"/><text x="41" y="232.36" fill="#D9B8FF" font-family="Helvetica" font-size="17" textLength="215">aws_iam_instance_profile</text><rect width="157" height="39.789" x="123" y="106.79" fill="#3D176E" rx="2.5" ry="2.5" style="stroke:#000d19;stroke-width:.5"/><circle cx="138" cy="126.684" r="11" fill="#ADD1B2" style="stroke:#181818;stroke-width:1"/><path d="M140.969 132.325q-.578.297-1.219.438-.64.156-1.344.156-2.5 0-3.828-1.64-1.312-1.657-1.312-4.782t1.312-4.781q1.328-1.656 3.828-1.656.703 0 1.344.156.656.156 1.219.453v2.719q-.625-.579-1.219-.844-.594-.281-1.219-.281-1.344 0-2.031 1.078-.688 1.062-.688 3.156 0 2.094.688 3.172.688 1.062 2.031 1.062.625 0 1.219-.265.594-.281 1.219-.86v2.72Z"/><text x="157" y="132.57" fill="#D9B8FF" font-family="Helvetica" font-size="17" textLength="115">aws_iam_role</text><rect width="137" height="39.789" x="67" y="7" fill="#3D176E" rx="2.5" ry="2.5" style="stroke:#000d19;stroke-width:.5"/><circle cx="82" cy="26.895" r="11" fill="#ADD1B2" style="stroke:#181818;stroke-width:1"/><path d="M84.969 32.535q-.578.297-1.219.438-.64.156-1.344.156-2.5 0-3.828-1.64-1.312-1.657-1.312-4.782t1.312-4.781q1.328-1.656 3.828-1.656.703 0 1.344.156.656.156 1.219.453v2.719q-.625-.578-1.219-.844-.594-.281-1.219-.281-1.344 0-2.031 1.078-.688 1.062-.688 3.156 0 2.094.688 3.172.688 1.062 2.031 1.062.625 0 1.219-.265.594-.281 1.219-.86v2.72Z"/><text x="101" y="32.78" fill="#D9B8FF" font-family="Helvetica" font-size="17" textLength="95">aws_region</text><path fill="none" d="M188.46 147.01c-10.58 15.67-25.53 37.83-36.86 54.61" style="stroke:#1a83af;stroke-width:2"/><path fill="#1A83AF" d="m148.51 205.2 8.354-5.217-5.554 1.074-1.074-5.553-1.726 9.696z" style="stroke:#1a83af;stroke-width:2"/><path fill="none" d="M125.93 47.1c-7.22 15.64-16.54 38.51-20.43 59.69-3.2 17.39-3.2 22.4 0 39.79 3.47 18.87 11.23 39.07 18 54.31" style="stroke:#1a83af;stroke-width:2"/><path fill="#1A83AF" d="m125.93 205.27-.083-9.849-1.986 5.297-5.297-1.986 7.366 6.538z" style="stroke:#1a83af;stroke-width:2"/><path fill="none" d="M148.54 47.22c10.58 15.67 25.53 37.83 36.86 54.61" style="stroke:#1a83af;stroke-width:2"/><path fill="#1A83AF" d="m188.49 105.41-1.726-9.697-1.074 5.554-5.554-1.074 8.354 5.217z" style="stroke:#1a83af;stroke-width:2"/></svg>
